!!!!SEGMENT: pl-sa--102-a-iii-2--005_anonim--missa-de-nativitate-benedictus.krn
!!!cenid: 18xx:1276
!!!COM: Anonim
!!!COM-rismid: pe30004985
!!!CDT:
!!!CNT:
!!!OPR: Missa de Nativitate
!!!OTL: Benedictus
!!!OMV: 005
!!!PDT: 1814
!!!AGN: Sacred; Mass
!!!SMS-siglum: PL-SA
!!!SMS-shelfmark: 102/A III 2
!!!SMS-shelfwork: 001-005 M
!!!SMS-variant: Violino Primo PL-SA 102/A III 2:15-17; Violino Secundo PL-SA 102/A III 2:19-21
!!!SMS-altvar: Violino Primo PL-SA 102/A III 2:11-14; Violino Secundo PL-SA 102/A III 2:23-26
!!!NIFC-rismid: 1001035508
!!!URL-scan: http://bc.bdsandomierz.pl/dlibra/publication/1458/edition/1426/content
!!!ONB-nifc: UWAGA: części Mszy: 1. Kyrie, 2. Et in terra, 3. Patrem, 4. Sanctus, 5. Benedictus, 6. Agnus Dei
!!!key:
**kern	**dynam	**kern	**dynam	**kern	**dynam	**kern	**kern	**text
*part5	*part5	*part4	*part4	*part3	*part3	*part2	*part1	*part1
*staff5	*	*staff4	*	*staff3	*	*staff2	*staff1	*staff1
*Iempty	*	*Ivioln	*	*Ivioln	*	*Ivox	*Ivox	*
*I"Baſso.	*	*I"Violino Secundo	*	*I"Violino Primo	*	*I"Canto 2do.	*I"Canto.	*
*I'B.	*	*I'V-no II	*	*I'V-no I	*	*I'C.II	*I'C.	*
*clefF4	*	*clefG2	*	*clefG2	*	*clefC1	*clefC1	*
*k[]	*	*k[]	*	*k[]	*	*k[]	*k[]	*
*C:	*	*C:	*	*C:	*	*C:	*C:	*
*M4/4	*	*M4/4	*	*M4/4	*	*M4/4	*M4/4	*
*met(c)	*	*met(c)	*	*met(c)	*	*met(c)	*met(c)	*
*	*	*	*	*	*below	*	*	*
=1	=1	=1	=1	=1	=1	=1	=1	=1
*tremolo	*	*	*	*	*	*	*	*
*	*	*tremolo	*	*	*	*	*	*
!LO:TX:b:t=Benedictus	!	!	!	!LO:TX:b:t=Benedictus	!	!	!LO:TX:a:t=11.	!
!LO:TX:a:t=adagio	!	!LO:TX:a:t=Adagio	!	!LO:TX:a:t=Adagio	!	!LO:TX:a:t=Benedictus Tacett	!LO:TX:a:t=Tarde	!
8C/L	.	8e/ 8G/L	.	4cc\	.	1ryy	00r	.
8C/	.	8e/ 8G/	.	.	.	.	.	.
8C/	.	8e/ 8G/	.	4cc\	.	.	.	.
8C/J	.	8e/ 8G/J	.	.	.	.	.	.
8C/L	.	8e/ 8G/L	.	16cc\LL	.	.	.	.
.	.	.	.	16dd\	.	.	.	.
8C/	.	8e/ 8G/	.	16ee\	.	.	.	.
.	.	.	.	16ff\JJ	.	.	.	.
8C/	.	8e/ 8G/	.	16gg\LL	.	.	.	.
.	.	.	.	16ee\J	.	.	.	.
8C/J	.	8e/ 8G/J	.	8cc\J	.	.	.	.
*Xtremolo	*	*Xtremolo	*	*	*	*	*	*
=2	=2	=2	=2	=2	=2	=2	=2	=2
4GG/	.	8f/L 8G/	.	8b\L	.	1ryy	.	.
.	.	8f/ 8G/	.	8dd\J	.	.	.	.
4C/	.	8e/ 8G/	.	4cc\	.	.	.	.
.	.	8e/J 8G/	.	.	.	.	.	.
*	*	*tremolo	*	*	*	*	*	*
4E/	.	8e/ 8G/L	.	8g'/L	.	.	.	.
.	.	8e/ 8G/	.	8cc'/	.	.	.	.
4C/	.	8e/ 8G/	.	8ee'/	.	.	.	.
.	.	8e/ 8G/J	.	8gg'/J	.	.	.	.
*	*	*Xtremolo	*	*	*	*	*	*
=3	=3	=3	=3	=3	=3	=3	=3	=3
!LO:TX:t=P:problem=mixed beam	!	!	!	!	!	!	!	!
8GG/L	.	4dd'\	.	4ff\	.	1ryy	.	.
8G/	.	.	.	.	.	.	.	.
8GG/	.	4dd'\	.	4ff\	.	.	.	.
8G\J	.	.	.	.	.	.	.	.
4G\	.	16dd'\LL	.	16ff'\LL	.	.	.	.
.	.	16cc'\	.	16ee'\	.	.	.	.
.	.	16b'\	.	16dd'\	.	.	.	.
.	.	16a'\JJ	.	16cc'\JJ	.	.	.	.
4GG/	.	16g'/LL	.	16b'/LL	.	.	.	.
.	.	16f'/	.	16a'/	.	.	.	.
.	.	16e'/	.	16g'/	.	.	.	.
.	.	16d'/JJ	.	16f'/JJ	.	.	.	.
=4	=4	=4	=4	=4	=4	=4	=4	=4
4C/	.	(16c/LL	.	(16f/LL	.	1ryy	.	.
.	.	16B/)	.	16e/	.	.	.	.
.	.	(16f/	.	16a/	.	.	.	.
.	.	16e/JJ)	.	16g/JJ)	.	.	.	.
4C/	.	4e/	.	4g/	.	.	.	.
*tremolo	*	*	*	*	*	*	*	*
8C/L	.	8r	.	8r	.	.	.	.
8C/	.	8e/L	.	8g/L	.	.	.	.
8C/	.	8e/	.	8g/	.	.	.	.
8C/J	.	8e/J	.	8g/J	.	.	.	.
*Xtremolo	*	*	*	*	*	*	*	*
!	!	!	!	!LO:LB:g=original	!	!	!	!
=5	=5	=5	=5	=5	=5	=5	=5	=5
4C/	.	8ee\L	.	8gg\L	.	1ryy	00r	.
.	.	[8dd\J	.	[8ff\J	.	.	.	.
4r	.	4dd\]	.	4ff\]	.	.	.	.
4C/	.	8dd\L	.	8ff\L	.	.	.	.
.	.	[8cc\J	.	[8ee\J	.	.	.	.
4r	.	4cc\]	.	4ee\]	.	.	.	.
=6	=6	=6	=6	=6	=6	=6	=6	=6
4G\	.	8cc\L	.	8ee\L	.	1ryy	.	.
.	.	[8b\J	.	[8dd\J	.	.	.	.
4GG/	.	4b\]	.	4dd\]	.	.	.	.
2r	.	8r	.	8r	.	.	.	.
.	.	8b'\L	.	8dd\L	.	.	.	.
.	.	8cc'\	.	8ee\	.	.	.	.
.	.	8dd'\J	.	8ff\J	.	.	.	.
!	!	!LO:LB:g=original	!	!	!	!	!	!
=7	=7	=7	=7	=7	=7	=7	=7	=7
4C/	.	8cc\L	.	8ee\L	.	1ryy	.	.
.	.	8ff\J	.	8aa\J	.	.	.	.
4r	.	4ee\	.	4gg\	.	.	.	.
4GG/	.	8r	.	8r	.	.	.	.
.	.	8b\L	.	8dd\L	.	.	.	.
4r	.	8cc\	.	8ee\	.	.	.	.
.	.	8dd\J	.	8ff\J	.	.	.	.
=8	=8	=8	=8	=8	=8	=8	=8	=8
4C/	.	16dd\LL	.	16ff\LL	.	1ryy	.	.
.	.	16cc\	.	16ee\	.	.	.	.
.	.	16ff\	.	16aa\	.	.	.	.
.	.	16ee\JJ	.	16gg\JJ	.	.	.	.
4r	.	4ee\	.	4gg\	.	.	.	.
4GG/	.	8r	.	8r	.	.	.	.
.	.	8b'\L	.	8dd\L	.	.	.	.
4r	.	8cc'\	.	8ee\	.	.	.	.
.	.	8dd'\J	.	8ff\J	.	.	.	.
=9	=9	=9	=9	=9||:	=9	=9	=9	=9
8C/L	.	4e/ 4G/	.	8cc'\L	.	1ryy	0r	.
8E/	.	.	.	8ee'\	.	.	.	.
8G/	.	4e/ 4G/	.	8gg'\	.	.	.	.
8E/J	.	.	.	8ee'\J	.	.	.	.
!LO:LB:g=original	!	!	!	!	!	!	!	!
8GG/L	.	4f/ 4G/	.	8g'/L	.	.	.	.
8BB/	.	.	.	8b'/	.	.	.	.
8D/	.	4f/ 4G/	.	8dd'/	.	.	.	.
8BB/J	.	.	.	8b'/J	.	.	.	.
!	!	!LO:LB:g=original	!	!	!	!	!	!
=10	=10	=10	=10	=10:||	=10	=10	=10	=10
!	!	!	!	!LO:TX:t=P:problem=powtórzony takt 9	!	!	!	!
8C\L	.	4e/ 4G/	.	8cc'\Lyy	.	1ryy	.	.
8E\	.	.	.	8ee'\yy	.	.	.	.
8G\	.	4e/ 4G/	.	8gg'\yy	.	.	.	.
8E\J	.	.	.	8ee'\Jyy	.	.	.	.
8GG/L	.	4f/ 4G/	.	8g'/Lyy	.	.	.	.
8BB/	.	.	.	8b'/yy	.	.	.	.
8D/	.	4f/ 4G/	.	8dd'/yy	.	.	.	.
8BB/J	.	.	.	8b'/Jyy	.	.	.	.
!!linebreak:original
=11	=11	=11	=11	=11	=11	=11	=11	=11
8C/	.	8e/L 8G/	.	8cc\L	.	1ryy	1r	.
8r	.	16f/L	.	(16dd\L	.	.	.	.
.	.	16g/JJ	.	16ee\JJ)	.	.	.	.
8C/	.	8e/L	.	8cc\L	.	.	.	.
8r	.	16f/L	.	(16dd\L	.	.	.	.
.	.	16g/JJ	.	16ee\JJ)	.	.	.	.
4C/	.	4e/ 4G/	.	4cc\	.	.	.	.
4r;	.	4r	.	4r	.	.	.	.
=12||	=12	=12||;	=12	=12||	=12	=12	=12	=12
*	*	*tremolo	*	*	*	*	*	*
!	!	!	!	!	!LO:DY:b	!	!	!
4C/	p	8e/ 8G/L	.	4cc\	pp	1ryy	4cc\	Be-
.	.	8e/ 8G/	.	.	.	.	.	.
4C/	.	8e/ 8G/	.	4cc\	.	.	4cc\	-ne-
.	.	8e/ 8G/J	.	.	.	.	.	.
2r	.	8e/ 8G/L	.	16cc\LL	.	.	16cc\LL	-di-
.	.	.	.	16dd\	.	.	16dd\JJ	.
.	.	8e/ 8G/	.	16ee\	.	.	16ee\LL	-cuts
.	.	.	.	16ff\JJ	.	.	16ff\JJ	.
.	.	8e/ 8G/	.	16gg\LL	.	.	16gg\LL	qui
.	.	.	.	16ee\J	.	.	16ee\JJ	.
.	.	8e/ 8G/J	.	8cc\J	.	.	8cc\	.
*	*	*Xtremolo	*	*	*	*	*	*
!	!	!	!	!LO:LB:g=original	!	!	!	!
=13	=13	=13	=13	=13	=13	=13	=13	=13
4GG/	.	8d/L	.	8b\L	.	1ryy	8b\L	ve-
.	.	8f/J	.	(8dd\J	.	.	8dd\J	.
4C/	.	4e/	.	4cc\)	.	.	4cc\	-nit
4C/	.	4r	.	4r	.	.	4r	.
4C/	.	8c/L	.	8cc\L	.	.	8cc\L	be-
.	.	8e/J	.	8ee\J	.	.	8ee\J	-ne-
=14	=14	=14	=14	=14	=14	=14	=14	=14
4C/	.	4g/	.	4gg\	.	1ryy	4gg\	-dic-
4r	.	8e/L	.	8ee'\L	.	.	8ee\L	-tus
.	.	8c/J	.	8cc'\J	.	.	8cc\J	.
!	!	!LO:PB:g=original	!	!	!	!	!	!
4GG/	.	4d/	.	4dd\	.	.	4dd\	qui
4r	.	8B/L	.	8b'/L	.	.	8b\L	ve-
.	.	8G/J	.	8g'/J	.	.	8g\J	-nit
=15	=15	=15	=15	=15	=15	=15	=15	=15
4C/	.	4g/	.	4gg\	.	1ryy	4gg\	in
4r	.	8e/L	.	8ee'\L	.	.	8ee\L	No-
.	.	8c/J	.	8cc'\J	.	.	8cc\J	.
4GG/	.	4d/	.	4dd\	.	.	4dd\	-mi-
4r	.	8B/L	.	8b'/L	.	.	8b\L	-ne
.	.	8G/J	.	8g'/J	.	.	8g\J	.
!	!	!	!	!	!	!	!LO:LB:g=original	!
=16	=16	=16	=16	=16	=16	=16	=16	=16
4C/	.	4e/	.	4cc\	.	1ryy	4cc\	No-
4E/	.	(8b\L	.	(8dd\L	.	.	8dd\L	-mi-
.	.	8cc\J)	.	8ee\J)	.	.	8ee\J	-ne
4F/	.	4dd\	.	4ff\	.	.	4ff\	/No-
4F#X/	.	8cc\L	.	8ee\L	.	.	8ee\	-mi-
.	.	8cc\J	.	8ee\J	.	.	8ee\	-ne/
=17	=17	=17	=17	=17	=17	=17	=17	=17
4G\	.	8cc\L	.	8ee\L	.	1ryy	8ee\L	Do-
.	.	8b\J	.	8dd\J	.	.	8dd\J	-mi-
4GG/	.	4b\	.	4dd\	.	.	4dd\	-mi
2r	.	(16b\LL	.	(16dd\LL	.	.	2r	.
.	.	16cc\	.	16ee\	.	.	.	.
.	.	16b\	.	16dd\	.	.	.	.
.	.	16a\JJ)	.	16cc#X\JJ)	.	.	.	.
.	.	4b\	.	4dd\	.	.	.	.
=18	=18	=18	=18	=18	=18	=18	=18	=18
!	!	!	!LO:DY:t=for	!	!	!	!LO:TX:a:t=5.	!
4G\	.	(8b\L	f	8dd\L	.	1ryy	00r	.
.	.	8dd\	.	8ff\	.	.	.	.
8r	.	8dd\	.	8ff\	.	.	.	.
8G\	.	8b\J)	.	8dd\J	.	.	.	.
!LO:LB:g=original	!	!	!	!	!	!	!	!
4c\	.	16cc\LL	.	16ee\LL	.	.	.	.
.	.	16dd\	.	(16ff\	.	.	.	.
.	.	16cc\	.	16ee\	.	.	.	.
.	.	16b\JJ	.	16dd\JJ	.	.	.	.
8r	.	4cc\	.	4ee\)	.	.	.	.
8c\	.	.	.	.	.	.	.	.
=19	=19	=19	=19	=19	=19	=19	=19	=19
4c\	.	(8cc\L	.	8ee\L	.	1ryy	.	.
.	.	8ee\	.	(8gg\	.	.	.	.
8r	.	8ee\	.	8gg\	.	.	.	.
8c\	.	8cc\J)	.	8ee\J)	.	.	.	.
4G\	.	(16dd\LL	.	16ff\LL	.	.	.	.
.	.	16ee\	.	16gg\	.	.	.	.
.	.	16dd\	.	(16ff\	.	.	.	.
.	.	16cc\JJ)	.	16ee\JJ	.	.	.	.
8r	.	4dd\	.	4ff\)	.	.	.	.
8G\	.	.	.	.	.	.	.	.
!	!	!	!	!LO:LB:g=original	!	!	!	!
=20	=20	=20	=20	=20	=20	=20	=20	=20
4G\	.	(8dd\L	.	(8ff\L	.	1ryy	.	.
.	.	8ff\	.	8aa\	.	.	.	.
8r	.	8ff\	.	8aa\	.	.	.	.
8G\	.	8dd\J)	.	8ff\J)	.	.	.	.
!	!	!LO:LB:g=original	!	!	!	!	!	!
8c\L	.	(16cc\LL	.	(16ee\LL	.	.	.	.
.	.	16b\	.	16dd\	.	.	.	.
8G\	.	16cc\	.	16ee\	.	.	.	.
.	.	16dd\JJ)	.	16ff\JJ)	.	.	.	.
8c\	.	8ee'\L	.	8gg'\L	.	.	.	.
8G\J	.	8ee'\J	.	8gg'\J	.	.	.	.
!!linebreak:original
=21	=21	=21	=21	=21	=21	=21	=21	=21
8B\L	.	16ee\LL	.	(16gg\LL	.	1ryy	.	.
.	.	(16dd\	.	16ff#X\	.	.	.	.
8G\	.	16ee\	.	16gg\	.	.	.	.
.	.	16ff\JJ)	.	16aa\JJ)	.	.	.	.
8B\	.	8.dd\L	.	8.ffn\L	.	.	.	.
8G\J	.	.	.	.	.	.	.	.
.	.	16b\Jk	.	16dd\Jk	.	.	.	.
8c\L	.	(16cc\LL	.	(16ee\LL	.	.	.	.
.	.	16b\	.	16dd\	.	.	.	.
8G\	.	16cc\	.	16ee\	.	.	.	.
.	.	16dd\JJ)	.	16ff\JJ)	.	.	.	.
8c\	.	8ee'\L	.	8gg'\L	.	.	.	.
8G\J	.	8ee'\J	.	8gg'\J	.	.	.	.
=22	=22	=22	=22	=22	=22	=22	=22	=22
8B\L	.	(16ee\LL	.	(16gg\LL	.	1ryy	1r	.
.	.	16dd\	.	16ff#X\	.	.	.	.
8G\	.	16ee\	.	16gg\	.	.	.	.
.	.	16ff\JJ)	.	16aa\JJ)	.	.	.	.
8B\	.	8.dd\L	.	8.ffn\L	.	.	.	.
8G\J	.	.	.	.	.	.	.	.
.	.	16b\Jk	.	16dd\Jk	.	.	.	.
8c\L	.	8e/L	.	8cc\L	.	.	.	.
8G\J	.	8g/J	.	8ee\J	.	.	.	.
4C/	.	4e/	.	4cc\	.	.	.	.
=23	=23	=23||:	=23	=23||:	=23	=23	=23	=23
4GG/	.	4b\	p	4dd\	p	1ryy	4dd\	Be-
4r	.	8cc\L	.	8ee\L	.	.	8ee\	.
.	.	8b\J	.	8dd\J	.	.	8dd\	-ne-
4GG/	.	8b/L	.	(8dd\L	.	.	8dd\	-di-
.	.	(8a/	.	8cc\	.	.	8cc\	-ctus
4r	.	8g/	.	8b\	.	.	8b\	.
.	.	8b/J)	.	8dd\J)	.	.	8cc\	qui
=24	=24	=24	=24	=24	=24	=24	=24	=24
4D\	.	(8b/L	.	(8dd\L	.	1ryy	8dd\L	ve-
.	.	8a/	.	8cc\	.	.	8cc\J	.
4D\	.	8g/	.	8b\	.	.	8b\L	.
.	.	8a/J)	.	8cc\J)	.	.	8cc\J	.
8r	.	4f#X/	.	4a/	.	.	4a\	-nit
8D'\L	.	.	.	.	.	.	.	.
8F#X'\	.	8r	.	8r	.	.	4r	.
8A'\J	.	8f#/	.	8cc\	.	.	.	.
=25	=25	=25:||	=25	=25:||	=25	=25	=25	=25
!	!	!LO:TX:t=P:problem=powtórzenie taktów 23-24	!	!LO:TX:t=P:problem=powtórzenie taktów 23-24	!	!	!	!
4GG/	.	4b\yy	p	4dd\yy	p	1ryy	4dd\	be-
4r	.	8cc\Lyy	.	8ee\Lyy	.	.	8ee\L	-ne-
.	.	8b\Jyy	.	8dd\Jyy	.	.	8dd\J	.
!LO:LB:g=original	!	!	!	!	!	!	!	!
4GG/	.	8b/Lyy	.	(8dd\Lyy	.	.	8dd\L	-di-
.	.	(8a/yy	.	8cc\yy	.	.	8cc\J	.
!	!	!	!	!	!	!	!LO:LB:g=original	!
4r	.	8g/yy	.	8b\yy	.	.	8b\	-ctus
.	.	8b/J)yy	.	8dd\J)yy	.	.	8cc\	qui
=26	=26	=26	=26	=26	=26	=26	=26	=26
4D\	.	(8b/Lyy	.	(8dd\Lyy	.	1ryy	8dd\L	ve-
.	.	8a/yy	.	8cc\yy	.	.	8cc\J	.
4D\	.	8g/yy	.	8b\yy	.	.	8b\L	.
.	.	8a/J)yy	.	8cc\J)yy	.	.	8cc\J	.
8r	.	4f#X/yy	.	4a/yy	.	.	4a\	-nit
8D\L	.	.	.	.	.	.	.	.
8F#X\	.	8ryy	.	8ryy	.	.	4r	.
8A\J	.	8f#/yy	.	8cc\yy	.	.	.	.
=27	=27	=27	=27	=27	=27	=27	=27	=27
4G\	.	4g/	.	4b\	.	1ryy	4b\	Be-
4r	.	4b/	.	4dd\	.	.	4dd\	-ne-
4G\	.	4b/	.	4dd\	.	.	4dd\	-di-
4r	.	8b/L	.	8dd\L	.	.	8dd\	-ctus
.	.	8b/J	.	8dd\J	.	.	8dd\	qui
!	!	!LO:LB:g=original	!	!LO:LB:g=original	!	!	!	!
=28	=28	=28	=28	=28	=28	=28	=28	=28
4c\	.	8cc\L	.	8ee\L	.	1ryy	8ee\L	ve-
.	.	8b\J	.	8dd\J	.	.	8dd\J	.
4r	.	4cc\	.	4ee\	.	.	4ee\	-nit
4A\	.	4r	.	4r	.	.	4r	.
4r	.	4cc\	.	4ee\	.	.	4ee\	Be-
=29	=29	=29	=29	=29	=29	=29	=29	=29
4D\	.	4a/	.	4ff#X\	.	1ryy	4ff#X\	-ne-
4D\	.	4a/	.	4ff#\	.	.	4ff#\	-di-
4D\	.	4a/	.	4ff#\	.	.	4ff#\	-ctus
4D\	.	8a/L	.	8ff#\L	.	.	8ee\	qui
.	.	8a/J	.	8ff#\J	.	.	8ff#\	.
=30	=30	=30	=30	=30	=30	=30	=30	=30
4G\	.	8b/L	.	8gg\L	.	1ryy	8gg\	ve-
.	.	8a/J	.	8ff#X\J	.	.	8ff#X\	.
4GG/	.	4b/	.	4gg\	.	.	4gg\	-nit
4GG/	.	4r	.	4r	.	.	4r	.
4G\	.	4b/	.	4gg\	.	.	4gg\	qui
!!linebreak:original
!	!	!	!	!	!	!	!LO:LB:g=original	!
=31	=31	=31	=31	=31	=31	=31	=31	=31
4r	.	(4dd\	.	(4ff\	.	1ryy	4ffn\	ve-
4G'\	.	4b\)	.	4dd\)	.	.	4dd\	-nit
4B'\	.	4r	.	4r	.	.	4r	.
4d'\	.	4dd\	.	4ff\|	.	.	4ff\	qui
=32	=32	=32	=32	=32	=32	=32	=32	=32
4r	.	(<4cc\	.	(4ee\	.	1ryy	4ee\	ve-
4G'\	.	4e/)	.	4cc\)	.	.	4cc\	-nit
4c'\	.	4r	.	4r	.	.	4r	.
4e'\	.	4ee\	.	4gg\|	.	.	4gg\	qui
=33	=33	=33	=33	=33	=33	=33	=33	=33
4r	.	4dd\	.	4ff\	.	1ryy	4ff\	ve-
4G'\	.	4b\	.	4dd\	.	.	4dd\	-nit
4B'\	.	4r	.	4r	.	.	4r	.
4d'\	.	4dd\	.	4ff\|	.	.	4ff\	in
=34	=34	=34	=34	=34	=34	=34	=34	=34
*	*	*tremolo	*	*	*	*	*	*
4C/	.	(8e/L	.	4ee\	.	1ryy	4ee\	No-
.	.	8g/	.	.	.	.	.	.
4C/	.	8e/	.	8dd\L	.	.	8dd\L	-mi-
.	.	8g/J)	.	8cc\J	.	.	8cc\J	-ne
4G\	.	(8f/L	.	4dd\	.	.	4dd\	/No-
.	.	8g/	.	.	.	.	.	.
4GG/	.	8f/	.	8ee\L	.	.	8ee\L	-mi-
.	.	8g/J)	.	8ff\J	.	.	8ff\J	-ne/
!LO:LB:g=original	!	!	!	!	!	!	!	!
=35	=35	=35	=35	=35	=35	=35	=35	=35
4C/	.	(8e/L	.	4ee\	.	1ryy	4ee\	No-
.	.	8g/	.	.	.	.	.	.
4C/	.	8e/	.	8dd\L	.	.	8dd\L	-mi-
.	.	8g/J)	.	8cc\J	.	.	8cc\J	-ne
4G\	.	(8f/L	.	4dd\	.	.	4dd\	/No-
.	.	8g/	.	.	.	.	.	.
4GG/	.	8f/	.	8ee\L	.	.	8ee\L	-mi-
.	.	8g/J)	.	8ff\J	.	.	8ff\J	-ne/
=36	=36	=36	=36	=36	=36	=36	=36	=36
4C/	.	4e/ 4G/	.	4ee\	.	1ryy	4ee\	No-
4F#X\	.	4e/ 4G/	.	8dd\L	.	.	8dd\L	-mi-
.	.	.	.	8cc\J	.	.	8cc\J	-ne
*	*	*	*	*2\right	*	*	*2\right	*
4G\	.	4f/ 4G/	.	2ddT\	.	.	2dd\	Do-
4GG/	.	4f/ 4G/	.	.	.	.	.	.
!	!	!LO:LB:g=original	!	!LO:LB:g=original	!	!	!	!
=37	=37	=37	=37	=37	=37	=37	=37	=37
8C\L	.	8e/ 8G/L	.	8cc\L	.	1ryy	8cc\L	-mi-
8E\	.	8e/ 8G/	.	8ee\J	.	.	8cc\J	-mi
8G\	.	8e/ 8G/	.	8gg\L	.	.	4r	.
8F#X\J	.	8e/ 8G/J	.	8ff#X\J	.	.	.	.
8G\L	.	8e/ 8G/L	.	8gg\L	.	.	2r	.
8F#X\J	.	8e/ 8G/	.	8ff#\J	.	.	.	.
8G\L	.	8e/ 8G/	.	8gg\L	.	.	.	.
16E\L	.	8e/ 8G/J	.	16ee\L	.	.	.	.
16C\JJ	.	.	.	16cc\JJ	.	.	.	.
=38	=38	=38	=38	=38	=38	=38	=38	=38
!	!	!	!	!	!	!	!LO:TX:a:t=3.	!
8C\L	.	8e/ 8G/L	.	8cc\L	.	1ryy	0r	.
8E\J	.	8e/ 8G/	.	8ee\J	.	.	.	.
8G\L	.	8e/ 8G/	.	8gg\L	.	.	.	.
16F#X\L	.	8e/ 8G/J	.	16ff#X\L	.	.	.	.
16G\JJ	.	.	.	16gg\JJ	.	.	.	.
4D\	.	8d/ 8G/L	.	4dd\	.	.	.	.
.	.	8d/ 8G/	.	.	.	.	.	.
8BB/L	.	8d/ 8G/	.	8b/L	.	.	.	.
8GG/J	.	8d/ 8G/J	.	8g/J	.	.	.	.
=39	=39	=39	=39	=39	=39	=39	=39	=39
8C/L	.	8e/ 8G/L	.	8cc'\L	.	1ryy	.	.
8E/J	.	8e/ 8G/	.	8ee'\J	.	.	.	.
8G\L	.	8e/ 8G/	.	8gg\L	.	.	.	.
16F#X\L	.	8e/ 8G/J	.	16ff#X\L	.	.	.	.
16G\JJ	.	.	.	16gg\JJ	.	.	.	.
4D\	.	8d/ 8G/L	.	4dd\	.	.	.	.
.	.	8d/ 8G/	.	.	.	.	.	.
8BB/L	.	8d/ 8G/	.	8b/L	.	.	.	.
8GG/J	.	8d/ 8G/J	.	8g/J	.	.	.	.
*	*	*Xtremolo	*	*	*	*	*	*
=40	=40	=40	=40	=40	=40	=40	=40	=40
4C/	.	4e/ 4G/	.	4cc\	.	1ryy	1r	.
4C/	.	8e/L 8G/	.	8cc\L	.	.	.	.
.	.	8g/J 8G/	.	8ee\J	.	.	.	.
4C/	.	4e/ 4G/	.	4cc\	.	.	.	.
4r	.	4r	.	4r	.	.	.	.
==	==	==	==	==	==	==	==	==
*-	*-	*-	*-	*-	*-	*-	*-	*-
!!!system-decoration: [(s1,s2)][(s3,s4)][(s5)]
!!!RDF**kern: > = above
!!!RDF**kern: < = below
!!!EED: Leszek Kubiak
!!!EST: 2021-01-08
!!!AIN: 1 empty 2 violn 2 vox
!!!ENC: Andrzej Gręziak
!!!END: 2020-12-08
!!!RDF**kern: | = vertical stroke
